icon-themes/sifr_svg/cmd/sc_autoformat.svg

<svg viewBox="0 0 16 16" xmlns="http://www.w3.org/2000/svg"><path d="m1 0v15h11.585938l-2.585938-2.585938v.585938h-3v-2h1.5859375l-1-1h-.5859375v-.5859375l-.171875-.171875h-.828125v.7578125h-3v-2h2.21875l-.0429688-.1757812-1.4179687-.3535157v-.4707031h-.7578125v-2h2.21875l.25-1h-2.46875v-2h3v1.7578125h1v-1.7578125h3v2h-2.46875l.25 1h2.21875v2h-.5859375l1.5859375 1.5859375v-.5859375h3v2h-1.585938l1 1h.585938v.585938l2 2v-13.585938zm10 2h3v2h-3zm-4.5 2-.5 2-2 .5 2 .5.5 2 .5-2 2-.5-2-.5zm4.5 1h3v2h-3zm-2 3-1 1 7 7 1-1zm-6 3h3v2h-3z" fill="#555753"/></svg>

<svg xmlns="http://www.w3.org/2000/svg" viewBox="0 0 16 16">
  <path
     style="fill:#555753"
     d="M 1 0 L 1 15 L 12.585938 15 L 10 12.414062 L 10 13 L 7 13 L 7 11 L 8.5859375 11 L 7.5859375 10 L 7 10 L 7 9.4140625 L 6.828125 9.2421875 L 6 9.2421875 L 6 10 L 3 10 L 3 8 L 5.21875 8 L 5.1757812 7.8242188 L 3.7578125 7.4707031 L 3.7578125 7 L 3 7 L 3 5 L 5.21875 5 L 5.46875 4 L 3 4 L 3 2 L 6 2 L 6 3.7578125 L 7 3.7578125 L 7 2 L 10 2 L 10 4 L 7.53125 4 L 7.78125 5 L 10 5 L 10 7 L 9.4140625 7 L 11 8.5859375 L 11 8 L 14 8 L 14 10 L 12.414062 10 L 13.414062 11 L 14 11 L 14 11.585938 L 16 13.585938 L 16 0 L 1 0 z M 11 2 L 14 2 L 14 4 L 11 4 L 11 2 z M 6.5 4 L 6 6 L 4 6.5 L 6 7 L 6.5 9 L 7 7 L 9 6.5 L 7 6 L 6.5 4 z M 11 5 L 14 5 L 14 7 L 11 7 L 11 5 z M 9 8 L 8 9 L 15 16 L 16 15 L 9 8 z M 3 11 L 6 11 L 6 13 L 3 13 L 3 11 z "
     />
</svg>
